X:245
T:Week's work - Hard
%%VWML:SBG-1-2-707-0
F:http://www.vwml.org/record/SBG/1/2/707
Z:Original Sibelius transcriptions by M. & S. Graebe
M:6/8
I:linebreak $
K:D
V:1 treble nm="P1"
V:1
 A | F2 D ED C | D2 D/ D/ D2 F | E2 F GA B | A2 A A2 | B | F2 F FG A | B2 B B2 |$ B | E2 E EF G | %10
 A2 A A3 | F D D D2 z | G E E E2 z | F G A B A G | F3 D/D/ D2 | %15

